libs/ui/packages/crypto-icons/src/svg/BNT.svg

<svg width="24" height="24" viewBox="0 0 24 24" fill="none">
<path d="M11.571 4.71417L8.18248 6.69942L11.571 8.68542L15.0232 6.69942L11.571 4.71417ZM12.1282 15.3147V19.2859L16.731 16.6602V12.6882L12.1282 15.3147ZM15.5805 7.94817V11.9202L12.1275 13.9062V9.93417L15.5805 7.94817ZM7.26898 11.9202L10.722 13.9062V9.93417L7.26898 7.94817V11.9202ZM7.26898 17.3007L10.722 19.2859V15.3147L7.26898 13.3294V17.2999V17.3007Z" fill="#000D2B"/>
</svg>

<svg width="24" height="24" viewBox="0 0 24 24" fill="none"><path fill="#000d2b" d="M11.571 4.714 8.182 6.7l3.389 1.986L15.023 6.7zm.557 10.6v3.972l4.603-2.626v-3.972zm3.453-7.366v3.972l-3.453 1.986V9.934zM7.269 11.92l3.453 1.986V9.934L7.269 7.948zm0 5.38 3.453 1.986v-3.971l-3.453-1.986z"/></svg>
